X:1
T:32
T:Hugo Distler
T:Martin Luther, 1541
T:32.  Lord, Let Us to Your Word be True Erhalt' uns, Herr, bei deinem Wort
T:Bärenreiter
T:Bärenreiter
T:Bärenreiter
T:Bärenreiter
T:Bärenreiter
C:Hugo Distler
Z:Martin Luther, 1541
Z:Bärenreiter
%%score [ ( 1 2 ) ( 3 4 ) ( 5 6 ) ]
L:1/8
Q:1/4=120
M:3/2
K:Gmin
V:1 treble nm="Soprano"
V:2 treble 
V:3 treble nm="Alto"
V:4 treble 
V:5 bass nm="Baritone"
V:6 bass 
V:1
 G4 | B2 G2 F2 G2 B2 A2 |[M:2/2] !breath!G4 B4 |[M:3/2] c2 c2 d3 B c2 c2 |[M:2/2] !breath!d4 d4 | %5
w: 1. Lord,|let us to Your word be|true, de-|stroy Your en- e- mies, their|due, who|
w: 3. God,|Ho- ly Ghost, our com- fort|are; give|to Your flock on earth one|heart. Stand|
[M:3/2] e2 d2 f2 d2 c2 c2 |1[M:2/2] !breath!B2 d4 B2 | c2 (BA) G2 ^F2 | %8
w: threat- en Je- sus Christ, Your|Son, they would|throw Him _ from Your|
w: by us in our lat- est|||
[M:3/2] G8"^(to verse 2)" ||3[M:2/2] !breath!B2 d4 B2 ||[M:3/2] c2 B4 A2 G2 ^F2 | G8!fine! || %12
w: throne.||||
w: |need and us|from death to glo- ry|lead.|
[M:3/2] z4 | G4 B2 G2 FG (B2- |[M:2/2] BA) G2 !breath!GB c2 |[M:3/2] !breath!c3 c c2 c2 (d3 c) | %16
w: |2. Lord Je- sus Christ, Your pow'r|_ _ make known; for You|are, for You are Lord _|
w: ||||
[M:2/2] B2 c2 c2 d2- |[M:3/2] !breath!d2 d2 (e3 d2) fed |[M:2/2] (cB) c2 B2 d2 | %19
w: of lords a- lone.|_ Shield Your _ poor Christ- en-|dom, _ that we may|
w: |||
[M:3/2] c2 d2 BA G4 G2 | G8!D.C.! |] %21
w: give You praise e- ter- nal-|ly.|
w: ||
V:2
 x4 | x12 |[M:2/2] x8 |[M:3/2] x12 |[M:2/2] x8 |[M:3/2] x12 |1[M:2/2] B2 A4 B2 | x8 |[M:3/2] x8 ||3 %9
[M:2/2] B2 A4 B2 ||[M:3/2] x12 | x8 ||[M:3/2] x4 | x12 |[M:2/2] x8 |[M:3/2] x12 |[M:2/2] x8 | %17
[M:3/2] x12 |[M:2/2] x8 |[M:3/2] x12 | x8 |] %21
V:3
 z2 D2 | E2 D2 C3 C B,2 C2 |[M:2/2] !breath!DD (E3 FED) |[M:3/2] C2 G2 _A2 (G2 F2) E2 | %4
w: 1. Lord,|let us to Your word be|true, de- stroy _ _ _|Your en- e- mies, _ their|
w: 3. God,|Ho- ly Ghost, our com- fort|are; give to _ _ _|Your flock on earth _ one|
[M:2/2] !breath!G4 F4 |[M:3/2] G2 (FE) D2 F2 G2 (FE) |1[M:2/2] !breath!D2 ^F4 G2 | (AG=FE D3) D | %8
w: due, who|threat- en _ Je- sus Christ, Your _|Son, they would|throw _ _ _ _ Him|
w: heart. Stand|by us _ in our lat- est *|||
[M:3/2] (DC/B,/C)"^(to verse 2)"E D4 ||3[M:2/2] !breath!D2 F4 G2- ||[M:3/2] G2 G2 F2 E2 D2 C2 | %11
w: from _ _ _ Your throne.|||
w: |need and us|_ from death to glo- ry|
"^( )" G,8 ||[M:3/2] C4 | E2 C2 B,2 C2 E2 D2 |[M:2/2] !breath!C4 E4 |[M:3/2] F2 F2 G2 E2 F2 F2 | %16
w: |2. Lord|Je- sus Christ, Your pow'r make|known; for|You are Lord of lords a-|
w: lead.|||||
[M:2/2] !breath!G6 G2 |[M:3/2] (_A2 G3) BAG F2 F2 |[M:2/2] E4 G4 |[M:3/2] E2 F2 E3 D C3 D | =E8 |] %21
w: lone. Shield|Your _ poor Christ- en- dom, that|we may|give You praise e- ter- nal-|ly.|
w: |||||
V:4
 x4 | x12 |[M:2/2] x8 |[M:3/2] x12 |[M:2/2] x8 |[M:3/2] x12 |1[M:2/2] x8 | x8 |[M:3/2] x8 ||3 %9
[M:2/2] x8 ||[M:3/2] x12 | G8 ||[M:3/2] x4 | x12 |[M:2/2] x8 |[M:3/2] x12 |[M:2/2] x8 | %17
[M:3/2] x12 |[M:2/2] x8 |[M:3/2] x8 C2 B,2 | C8 |] %21
V:5
 z4 | z2 G,2 B,A, G,3 A,F,E, |[M:2/2] !breath!G,6 G,2 |[M:3/2] _A,3 G, F,E, C4 C2 | %4
w: |1. Lord, let us to Your word be|true, de-|stroy Your en- e- mies, their|
w: |3. God, Ho- ly Ghost, our com- fort|are; give|to Your flock on earth one|
[M:2/2] !breath!=B,4 _B,4 |[M:3/2] E,2 E,2 B,6 =A,2 |1[M:2/2] G,G, !breath!D,2 D3 D | %7
w: due, who|threat- en Je- sus|Christ, Your Son, they would|
w: heart. Stand|by us in our||
 E,2 (E,C,) D,2 D,2 |[M:3/2]"^( )" G,8"^(to verse 2)" ||3[M:2/2] G,G, !breath!D,4 B,2 || %10
w: throw Him _ from Your|throne.||
w: ||lat- est need and|
[M:3/2] A,2 G,2 D,3 D, E,2 C,2 |"^( )" G,8 ||[M:3/2] z4 | z12 |[M:2/2] z8 |[M:3/2] z12 | %16
w: ||||||
w: us from death to glo- ry|lead.|||||
[M:2/2] z8 |[M:3/2] z12 |[M:2/2] z8 |[M:3/2] z12 | z8 |] %21
w: |||||
w: |||||
V:6
 x4 | x12 |[M:2/2] x8 |[M:3/2] x12 |[M:2/2] G,4 B,4 |[M:3/2] x12 |1[M:2/2] x8 | x8 | %8
[M:3/2] G,,8 ||3[M:2/2] x8 ||[M:3/2] x12 | G,,8 ||[M:3/2] x4 | x12 |[M:2/2] x8 |[M:3/2] x12 | %16
[M:2/2] x8 |[M:3/2] x12 |[M:2/2] x8 |[M:3/2] x12 | x8 |] %21

